public/library/karatgold-coin-icon-light.svg

<svg enable-background="new 0 0 300 361" viewBox="0 0 300 361" xmlns="http://www.w3.org/2000/svg" xmlns:xlink="http://www.w3.org/1999/xlink"><linearGradient id="a" gradientUnits="userSpaceOnUse" x1="146.7059" x2="150.0392" y1="3.9211" y2="365.2544"><stop offset="0" stop-color="#f9f091"/><stop offset=".1" stop-color="#e4c86d"/><stop offset=".1354" stop-color="#ddc370"/><stop offset=".2" stop-color="#d5be74"/><stop offset=".2105" stop-color="#dbc271"/><stop offset=".2342" stop-color="#e2c76e"/><stop offset=".3" stop-color="#e4c86d"/><stop offset=".4" stop-color="#f9f091"/><stop offset=".5" stop-color="#e3c86d"/><stop offset=".6" stop-color="#d5be74"/><stop offset=".7" stop-color="#e3c86d"/><stop offset=".8" stop-color="#f9f091"/><stop offset=".9" stop-color="#e3c86d"/><stop offset="1" stop-color="#d5be74"/></linearGradient><path d="m82.8 167.1-62 60v-227.1h62zm164.4 119.7-82.8-115 124.7-171.8h-22l-246.3 239.4v121.6h62v-174.5l112.7 171.7zm4.6-286.8h-58.3l-107.1 163.8zm-46.3 361h94.5l-47.3-69.9zm-190.7-361h-14.8v361h14.8z" fill="url(#a)"/></svg>

<svg xmlns="http://www.w3.org/2000/svg" viewBox="0 0 300 361"><linearGradient id="a" x1="146.706" x2="150.039" y1="3.921" y2="365.254" gradientUnits="userSpaceOnUse"><stop offset="0" stop-color="#f9f091"/><stop offset=".1" stop-color="#e4c86d"/><stop offset=".135" stop-color="#ddc370"/><stop offset=".2" stop-color="#d5be74"/><stop offset=".21" stop-color="#dbc271"/><stop offset=".234" stop-color="#e2c76e"/><stop offset=".3" stop-color="#e4c86d"/><stop offset=".4" stop-color="#f9f091"/><stop offset=".5" stop-color="#e3c86d"/><stop offset=".6" stop-color="#d5be74"/><stop offset=".7" stop-color="#e3c86d"/><stop offset=".8" stop-color="#f9f091"/><stop offset=".9" stop-color="#e3c86d"/><stop offset="1" stop-color="#d5be74"/></linearGradient><path fill="url(#a)" d="m82.8 167.1-62 60V0h62zm164.4 119.7-82.8-115L289.1 0h-22L20.8 239.4V361h62V186.5l112.7 171.7zM251.8 0h-58.3L86.4 163.8zm-46.3 361H300l-47.3-69.9zM14.8 0H0v361h14.8z"/></svg>
